packages/design-assets/icons/24px/Code.svg

<?xml version="1.0" encoding="UTF-8"?>
<svg width="24px" height="24px" viewBox="0 0 24 24" version="1.1" xmlns="http://www.w3.org/2000/svg" xmlns:xlink="http://www.w3.org/1999/xlink">
    <!-- Generator: Sketch 54.1 (76490) - https://sketchapp.com -->
    <title>Icons/24px/Code</title>
    <desc>Created with Sketch.</desc>
    <g id="Icons/24px/Code" stroke="none" stroke-width="1" fill="none" fill-rule="evenodd">
        <path d="M7.41421359,7.99999993 L3.41421359,11.9999999 L7.41421359,15.9999999 L6.00000002,17.4142135 L0.585786462,11.9999999 L6.00000002,6.58578637 L7.41421359,7.99999993 Z M16.5857865,15.9999999 L20.5857865,11.9999999 L16.5857865,7.99999993 L18,6.58578637 L23.4142136,11.9999999 L18,17.4142135 L16.5857865,15.9999999 Z M10.7276069,21.2126781 L8.7873219,20.7276068 L13.2723931,2.78732181 L15.2126781,3.27239306 L10.7276069,21.2126781 Z" id="i-24-code" fill="#818F99"></path>
    </g>
</svg>

<svg width="24" height="24" xmlns="http://www.w3.org/2000/svg"><path d="M7.414 8l-4 4 4 4L6 17.414.586 12 6 6.586 7.414 8zm9.172 8l4-4-4-4L18 6.586 23.414 12 18 17.414 16.586 16zm-5.858 5.213l-1.94-.485 4.484-17.94 1.94.484-4.484 17.94z" fill="#818F99" fill-rule="evenodd"/></svg>
